newicons/iqiyi.svg

<?xml version="1.0" encoding="UTF-8" standalone="no"?>
<svg
   id="Layer_1"
   data-name="Layer 1"
   version="1.1"
   viewBox="0 0 48 48"
   sodipodi:docname="iqiyi.svg"
   inkscape:version="1.3.2 (091e20ef0f, 2023-11-25)"
   xml:space="preserve"
   xmlns:inkscape="http://www.inkscape.org/namespaces/inkscape"
   xmlns:sodipodi="http://sodipodi.sourceforge.net/DTD/sodipodi-0.dtd"
   xmlns="http://www.w3.org/2000/svg"
   xmlns:svg="http://www.w3.org/2000/svg"><sodipodi:namedview
     id="namedview1"
     pagecolor="#242424"
     bordercolor="#000000"
     borderopacity="0.25"
     inkscape:showpageshadow="2"
     inkscape:pageopacity="0.0"
     inkscape:pagecheckerboard="0"
     inkscape:deskcolor="#535353"
     inkscape:zoom="17.8125"
     inkscape:cx="24.785965"
     inkscape:cy="23.494737"
     inkscape:window-width="1918"
     inkscape:window-height="1053"
     inkscape:window-x="0"
     inkscape:window-y="0"
     inkscape:window-maximized="1"
     inkscape:current-layer="Layer_1" /><defs
     id="defs1"><style
       id="style1">
      .cls-1 {
        fill: none;
        stroke: #fff;
        stroke-linecap: round;
        stroke-linejoin: round;
      }
    </style></defs><path
     style="fill:none;stroke:#ffffff;stroke-opacity:1;stroke-linejoin:round;stroke-linecap:round"
     d="m 9.5,5.5 h 29 c 2.216,0 4,1.784 4,4 v 29 c 0,2.216 -1.784,4 -4,4 h -29 c -2.216,0 -4,-1.784 -4,-4 v -29 c 0,-2.216 1.784,-4 4,-4 z"
     id="path10" /><g
     id="g10"><path
       id="circle2201"
       style="fill:#ffffff;stroke-width:0px"
       class="cls-7"
       d="m 12.017398,19.016241 a 0.92561948,0.93321568 0 0 1 -0.925619,0.933216 0.92561948,0.93321568 0 0 1 -0.92562,-0.933216 0.92561948,0.93321568 0 0 1 0.92562,-0.933216 0.92561948,0.93321568 0 0 1 0.925619,0.933216 z" /><path
       style="fill:none;stroke:#ffffff;stroke-linecap:round;stroke-linejoin:round;stroke-opacity:1"
       d="m 11.091779,22.215834 v 7.199091"
       id="path9" /></g><g
     id="g11"><path
       style="fill:none;stroke:#ffffff;stroke-linecap:round;stroke-linejoin:round;stroke-opacity:1"
       d="M 21.288666,29.414927 17.850638,25.81538"
       id="path8" /><path
       style="fill:none;stroke:#ffffff;stroke-linecap:round;stroke-linejoin:round;stroke-opacity:1"
       d="m 17.850638,29.414926 v 0 c -1.983471,0 -3.438016,-1.599798 -3.438016,-3.46623 V 22.34915 c 0,-1.999748 1.586777,-3.599546 3.438016,-3.599546 v 0 c 1.98347,0 3.438015,1.599798 3.438015,3.599546 v 3.46623 c 0,1.999748 -1.454545,3.599546 -3.438015,3.599546 z"
       id="path7" /></g><path
     style="fill:none;stroke:#ffffff;stroke-linecap:round;stroke-linejoin:round;stroke-opacity:1"
     d="M 24.345043,18.749603 V 29.414927"
     id="path6" /><g
     id="g12"><path
       style="fill:none;stroke:#ffffff;stroke-linecap:round;stroke-linejoin:round;stroke-opacity:1"
       d="M 34.277461,18.749604 30.839446,24.082265 27.40143,18.749604"
       id="path5" /><path
       style="fill:none;stroke:#ffffff;stroke-linecap:round;stroke-linejoin:round;stroke-opacity:1"
       d="M 30.839446,29.414927 V 24.082266"
       id="path4" /></g><path
     style="fill:none;stroke:#ffffff;stroke-linecap:round;stroke-linejoin:round;stroke-opacity:1"
     d="M 37.333839,18.749603 V 29.414927"
     id="path3" /></svg>

<?xml version="1.0" encoding="UTF-8"?><svg id="a" xmlns="http://www.w3.org/2000/svg" viewBox="0 0 48 48"><defs><style>.n{fill:none;stroke:#fff;stroke-linecap:round;stroke-linejoin:round;}.o{fill:#fff;stroke-width:0px;}</style></defs><path id="b" class="n" d="M9.5,5.5h29c2.216,0,4,1.784,4,4v29c0,2.216-1.784,4-4,4H9.5c-2.216,0-4-1.784-4-4V9.5c0-2.216,1.784-4,4-4Z"/><g id="c"><path id="d" class="o" d="M11.8357,19.0162c0,.4142-.3331.75-.7439.75h0c-.4108,0-.7439-.3358-.7439-.75h0c0-.4142.3331-.75.7439-.75h0c.4108,0,.7439.3358.7439.75h0Z"/><path id="e" class="n" d="M11.0918,22.2158v7.1991"/></g><g id="f"><path id="g" class="n" d="M21.2887,29.4149l-3.438-3.5995"/><path id="h" class="n" d="M17.8506,29.4149h0c-1.9835,0-3.438-1.5998-3.438-3.4662v-3.5995c0-1.9997,1.5868-3.5995,3.438-3.5995h0c1.9835,0,3.438,1.5998,3.438,3.5995v3.4662c0,1.9997-1.4545,3.5995-3.438,3.5995Z"/></g><path id="i" class="n" d="M24.345,18.7496v10.6653"/><g id="j"><path id="k" class="n" d="M34.2775,18.7496l-3.438,5.3327-3.438-5.3327"/><path id="l" class="n" d="M30.8394,29.4149v-5.3327"/></g><path id="m" class="n" d="M37.3338,18.7496v10.6653"/></svg>
